X: 34662
T: Road To Canterbury
R: jig
M: 6/8
K: Dmajor
|:AFD DFG|AFD G2E|c3 B3|A2B ABc|
d2B AFD|AFD DFG|E2d AFD|DFG E2d:|
|:DFG Ade|g2e afd|e2d dfa|1 AFD DFG:|2 b2 d4||

